X: 1
T: River Driver, The
M: 12/8
L: 1/8
R: slide
K: Cmaj
CC2 CC2 AG2  FE2|D3 CA,2 B,C3-C2|
GA2 A2G FA2 A3|C3 ED2 CD3-D2|
GA2 A2G FA2 A3|C3 ED2 CD3-D2|
CC2 CC2 AG2  FE2|D3 CA,2 B,C3-C2|
